icon-themes/sifr_svg/cmd/sc_arrowshapes.split-arrow.svg

<svg viewBox="0 0 16 16" xmlns="http://www.w3.org/2000/svg"><path d="m0 1v5l1-1.1 5 4.9v5.2h4v-5.2l4.9-4.9 1.1 1.1v-5h-5l1 1-4 4.171875-4.1-4.171875 1.1-1z" fill="#555753"/></svg>

<svg xmlns="http://www.w3.org/2000/svg" viewBox="0 0 16 16">
  <path
     style="fill:#555753"
     d="M 0 1 L 0 6 L 1 4.9 L 6 9.8 L 6 15 L 10 15 L 10 9.8 L 14.9 4.9 L 16 6 L 16 1 L 11 1 L 12. 2 L 8 6.171875 L 3.9 2 L 5 1 L 0 1 z "
     />
</svg>
